!!!!SEGMENT: pl-kk--kk-i-38--005_lasso-orlando-di--confundantur-superbi.krn
!!!cenid: 16xx:1255
!!!COM: Lasso, Orlando di
!!!COM-rismID: pe506
!!!CDT: ~1532-1594/06/14
!!!CNT: French-Flemish
!!!OTL: Confundantur superbi
!!!PDT:
!!!AGN: Sacred
!!!SMS-siglum: PL-Kk
!!!SMS-shelfmark: Kk.I.38
!!!SMS-shelfwork: 005 W
!!!SMS-variant:
!!!SMS-altvar:
!!!NIFC-rismSourceID: 1001153210
!!!NIFC-rismChildID: 1001154372
!!!NIFC-islandoraID: pl-kk:2701
!!!URL-pdf-islandora: https://repozytorium.nifc.pl/islandora/object/pl-kk%3A2701/datastream/PDF/view
!!!URL-scan: https://polish.musicsources.pl/pl/lokalizacje/galeria/rekopisy/5992 @EN{Scan on Polish Music Sources Website} @PL{Skany w portalu Dziedzictwo Muzyki Polskiej w otwartym dostępie}
!!!IIIF:
!!!ONB-nifc: Lib. 1. Fol. 17. 2da parte (jeśli występuje), należy do utworu tytułowego
!!!AIN: 1 empty
!!!key:
**kern	**text
*Iempty	*
*I"Baſso Ripieno.	*
*I'B rip	*
*clefF3	*
*k[]	*
*C:	*
*M2/1	*
*met(C|)	*
=1-	=1-
!LO:TX:a:t=De S[an]ctis Mulierib(us). Lib. 1. Fol. 17.	!
!LO:TX:t=P:problem=przy kluczu Bn	!
00r	.
=2-	=2-
.	.
=3-	=3-
00r	.
=4-	=4-
.	.
=5-	=5-
00r	.
=6-	=6-
.	.
=7-	=7-
!LO:TX:t=P:problem=kreska pseudotaktowa	!
0r	.
=8-	=8-
1G	Con-
*2\right	*
2G\	-fun-
4C/	-dan-
!LO:TX:t=P:problem=kreska pseudotaktowa	!
4D/	.
=9-	=9-
4E/	.
4F/	.
2G\	.
!LO:TX:t=P:problem=oddech/rozdzielacz słów na różnych wysokościach	!
2F,<\	-tur
!LO:TX:t=P:problem=kreska pseudotaktowa	!
2C/	Su-
=10-	=10-
4C/	-per-
4D/	.
4E/	.
4C/	.
2G\	.
!LO:TX:t=P:problem=kreska pseudotaktowa	!
2C/	-bi,
=11-	=11-
2r	.
!LO:TX:t=P:problem=kreska pseudotaktowa	!
2c\	Con-
2c\	-fun-
4F\	-dan-
4G\	.
=12-	=12-
4A\	.
4B\	.
!LO:TX:t=P:problem=kreska pseudotaktowa	!
2c\	.
2G,<\	-tur
2G\	Su-
=13-	=13-
4D/	-per-
4E/	.
4F/	.
4G/	.
4A\	.
4B\	.
4c\	.
!LO:TX:t=P:problem=kreska pseudotaktowa	!
4A\	.
=14-	=14-
1d	.
!LO:TX:t=P:problem=kreska pseudotaktowa	!
1A	-bi;
=15-	=15-
2r	.
1B-X	qui-
*custos:A	*
!LO:TX:t=P:problem=kreska pseudotaktowa	!
2F\	-a.
!LO:LB:g=original	!
=16-	=16-
2A\	in-
1c	-ju-
!LO:TX:t=P:problem=kreska pseudotaktowa	!
2F/	-ste
=17-	=17-
1r	.
1F	i-
=18-	=18-
2A\	-ni-
2B-X\	-qui-
2.A\	-ta-
4G\	.
=19-	=19-
2F/	-tem
!LO:TX:t=P:problem=kreska pseudotaktowa	!
2D/	.
2d\	fe-
2c\	-ce-
=20-	=20-
2Bn,<\	-runt
2c\	in
!LO:TX:t=P:problem=kreska pseudotaktowa	!
1F	me.
=21-	=21-
00r	.
=22-	=22-
.	.
=23-	=23-
0r	.
=24-	=24-
!LO:TX:t=P:problem=kreska pseudotaktowa	!
1r	.
1.G	E-
=25-	=25-
.	.
2G\	-go
1G	au-
=26-	=26-
2D,</	-tem
1d	e-
!LO:TX:t=P:problem=kreska pseudotaktowa	!
2c\	-xer-
=27-	=27-
2.B-X\	-ce-
4A\	.
1G	.
=28-	=28-
!LO:TX:t=P:problem=kreska pseudotaktowa	!
1F	-bor
1r	.
=29-	=29-
2r	.
1A	in
2Bny\	man-
=30-	=30-
2.c\	-da-
!LO:TX:t=P:problem=kreska pseudotaktowa	!
4B\	.
!LO:LB:g=original	!
4A\	.
4G\	.
2F/	.
=31-	=31-
2.E/	-tis
4F/	.
2G\	.
4F/	.
4E/	.
=32-	=32-
2D,</	.
2G\	tu-
!LO:TX:t=P:problem=kreska pseudotaktowa	!
1C	-is,
=33-	=33-
1r	.
2r	.
1F\	in
=34-	=34-
.	.
2G\	man-
2.A\	-da-
4G\	.
=35-	=35-
4F/	.
4E/	.
2D/	.
!LO:TX:t=P:problem=kreska pseudotaktowa	!
1C	-tis
=36-	=36-
1r	.
2r	.
2A\	in
=37-	=37-
2B\	man-
[<2c\	-da-
!LO:N:xstem:cue	!
4c\]	.
4B\	.
4A\	.
4G\	.
=38-	=38-
2F/	.
4E/	.
!LO:TX:t=P:problem=kreska pseudotaktowa	!
4D/	.
2C,</	-tis
2C/	tu-
=39-	=39-
2F\	.
!LO:TX:t=P:problem=kreska pseudotaktowa	!
2D,</	-is,
1r	.
=40-	=40-
2r	.
1A	in
!LO:TX:t=P:problem=kreska pseudotaktowa	!
2B\	man-
=41-	=41-
2.c\	-da-
4B\	.
2A\	.
!LO:TX:t=P:problem=kreska pseudotaktowa	!
2G#X\	-tis
!LO:LB:g=original	!
=42-	=42-
1A	tu-
!LO:TX:t=P:problem=kreska pseudotaktowa	!
1E	-is,
=43-	=43-
2r	.
1D	in
2E/	man-
=44-	=44-
2F/	-da-
!LO:TX:t=P:problem=kreska pseudotaktowa	!
2D/	.
1A	.
=45-	=45-
2D,</	-tis,
1Gny	in
2F#X\	man-
=46-	=46-
2G\	-da-
2G\	-tis
1G	Tu-
=47-	=47-
0Dl;	-is.
=48||	=48||
*M2/1	*
*met(C|)	*
!LO:TX:a:t=2da parte	!
00r	.
=49-	=49-
.	.
=50-	=50-
00r	.
=51-	=51-
.	.
=52-	=52-
00r	.
=53-	=53-
.	.
=54-	=54-
!LO:TX:t=P:problem=kreska pseudotaktowa	!
0r	.
=55-	=55-
1G	Fi-
2F,</	-at
!LO:TX:t=P:problem=kreska pseudotaktowa	!
2E/	cor
=56-	=56-
1D	me-
2C,</	-um
2C/	i(m)-
=57-	=57-
2F/	-ma-
2C/	-cu-
1G	-la-
=58-	=58-
!LO:TX:t=P:problem=kreska pseudotaktowa	!
1A,<	-tu(m)
!LO:LB:g=original	!
!LO:TX:t=P:problem=kreska pseudotaktowa	!
0r	.
=59-	=59-
.	.
1G	Fi-
=60-	=60-
2A\	-at
2B\	cor
!LO:TX:t=P:problem=kreska pseudotaktowa	!
1c	me-
=61-	=61-
2d,<\	-um
2D/	im-
2E/	-ma-
2G\	-cu-
=62-	=62-
*lig	*
1D	-la-
1E	.
*Xlig	*
=63-	=63-
2D,</	tum
2G\	Fi-
2c,<\	-at
!LO:TX:t=P:problem=kreska pseudotaktowa	!
2F/	cor
=64-	=64-
2.c\	me-
4B\	.
1A	.
=65-	=65-
!LO:TX:t=P:problem=kreska pseudotaktowa	!
1G	-um.
2r	.
2G\	i(m)-
=66-	=66-
2D/	-ma-
2D/	-cu-
1G	-la-
=67-	=67-
!LO:TX:t=P:problem=kreska pseudotaktowa	!
1C	-tum,
0r	.
=68-	=68-
.	.
1r	.
=69-	=69-
2r	.
2C/	im-
2G\	-ma-
2F#X\	-cu-
=70-	=70-
*lig	*
1G	-la-
1D	.
*Xlig	*
=71-	=71-
!LO:TX:t=P:problem=kreska pseudotaktowa	!
1G	-tum
00r	.
=72-	=72-
.	.
=73-	=73-
.	.
!LO:TX:t=P:problem=kreska pseudotaktowa	!
0r	.
=74-	=74-
.	.
!LO:LB:g=original	!
1D	in
=75-	=75-
1E	Ju-
2Fny/	-sti-
!LO:TX:t=P:problem=kreska pseudotaktowa	!
2D/	-fi-
=76-	=76-
4C/	-ca-
4D/	.
4E/	.
4F/	.
2G\	.
!LO:TX:t=P:problem=kreska pseudotaktowa	!
2G\	-ti-
=77-	=77-
2D/	-o-
2E/	-ni-
1F,<	-b(us)
=78-	=78-
1E	Tu-
!LO:TX:t=P:problem=kreska pseudotaktowa	!
1D	-is,
=79-	=79-
!LO:TX:a:t=4	!
!LO:TX:t=P:problem=kreska pseudotaktowa	!
00r	.
=80-	=80-
.	.
=81-	=81-
2r	.
!LO:TX:t=P:problem=kreska pseudotaktowa	!
2F\	ut
2G\	non
2A\	con-
=82-	=82-
2F/	-fun-
!LO:TX:t=P:problem=kreska pseudotaktowa	!
2E/	-dar,
1r	.
=83-	=83-
2r	.
*	*ij
!LO:TX:t=P:problem=kreska pseudotaktowa	!
2A\	ut
2B\	non
!LO:TX:t=P:problem=kreska pseudotaktowa	!
2c\	con-
=84-	=84-
2A\	-fun-
!LO:TX:t=P:problem=kreska pseudotaktowa	!
2G\	-dar,
*	*Xij
2r	.
!LO:TX:t=P:problem=kreska pseudotaktowa	!
2D/	ut
=85-	=85-
2G\	non
!LO:TX:t=P:problem=kreska pseudotaktowa	!
2C/	con-
2D/	-fun-
4D,</	-dar
!LO:TX:t=P:problem=kreska pseudotaktowa	!
4D/	ut
!LO:LB:g=original	!
=86-	=86-
2G\	non
!LO:TX:t=P:problem=kreska pseudotaktowa	!
2C/	con-
2F/	-fun-
!LO:TX:t=P:problem=kreska pseudotaktowa	!
2E/	-dar,
=87-	=87-
1r	.
2r	.
*	*ij
!LO:TX:t=P:problem=kreska pseudotaktowa	!
2A\	ut
=88-	=88-
2B\	non
!LO:TX:t=P:problem=kreska pseudotaktowa	!
2c\	con-
2A\	-fun-
!LO:TX:t=P:problem=kreska pseudotaktowa	!
2G\	-dar,
*	*Xij
=89-	=89-
1r	.
1D	ut
=90-	=90-
2E/	non
!LO:TX:t=P:problem=kreska pseudotaktowa	!
2F/	con-
2D/	-fun-
!LO:TX:t=P:problem=kreska pseudotaktowa	!
2C/	-dar
=91-	=91-
2r	.
*	*ij
!LO:TX:t=P:problem=kreska pseudotaktowa	!
2G\	ut
2A\	non
!LO:TX:t=P:problem=kreska pseudotaktowa	!
2B-X\	con-
=92-	=92-
2G\	-fun-
!LO:TX:t=P:problem=kreska pseudotaktowa	!
2F\	-dar,
*	*Xij
2r	.
!LO:TX:t=P:problem=kreska pseudotaktowa	!
2A\	ut
=93-	=93-
2d\	non
2G\	con-
!LO:TX:t=P:problem=kreska pseudotaktowa	!
1A	-fun-
=94-	=94-
2D,</	-dar,
*	*ij
2D/	ut
2G\	non
2C/	con-
=95-	=95-
!LO:TX:t=P:problem=kreska pseudotaktowa	!
1D	-fun-
!LO:LB:g=original	!
2G,<\	-dar,
*	*Xij
!LO:TX:t=P:problem=kreska pseudotaktowa	!
2C/	ut
=96-	=96-
2.G\	non
4F\	.
2E/	.
2E/	con-
=97-	=97-
1C	-fun-
1Gl;	-dar.
==	==
*-	*-
!!!RDF**kern: > = above
!!!RDF**kern: < = below
!!!RDF**kern: l = terminal long
!!!ENC: Andrzej Kubiczek
!!!END: 2021-07-29
!!!ENC: Krzysztof Stępień
!!!END: 2021-07-01
!!!YEC: Copyright 2022 Narodowy Instytut Fryderyka Chopina (https://polishscores.org)
!!!YEM: License CC-BY-4.0 (https://creativecommons.org/licenses/by/4.0)
